X: 232
T: The Belted Plaid and health to wear it
T: Am Breacdhan ur gu meal u e
P: Sprightly Dance.
B: Simon Fraser's "Airs and Melodies Peculiar to the Highlands of Scotland and the Isles" p.104 #232
Z: 2022 John Chambers <jc:trillian.mit.edu>
M: C|
L: 1/8
K: E
% = = = = = = = = = =
V: 1 staves=2
A |\
(G/A/B) TBA GATBG | (G/A/B) Bc =dDDA | (G/A/B) TBA GABg | afdB e2e :: a | Tg>fea gebe | f=dad fdda |
Tg>fea gebg | afdB ~e2ea || Tg>feb gebe | f=dgd fdda | gebg afdB | cAfd e2e |]
% = = = = = = = = = =
% Voice 2 preserves the staff layout in the book.
V: 2 clef=bass middle=d
z |\
e2e2 e2e2 | e2e2 =d2d2 | e2e2 e2e2 | b2B2 e2E :: z |\
[e'2e2][e'2e2] [e'2e2][e'2e2] | [=d'2=d2][d'2d2] [d'2d2][d'2d2] |
[e'2e2][e'2e2] [e'2e2][e'2e2] | b2B2 e2E2 ||\
[e'2e2][e'2e2] [e'2e2][e'2e2] | [=d'2=d2][d'2d2] [d'2d2][d'2d2] |\
e2g2 a2b2 | a2b2 e2E |]
